optimized/24/outline/text-product.svg

<svg viewBox="0 0 24 24" xmlns="http://www.w3.org/2000/svg" fill="currentColor" data-slot="icon">
  <g clip-path="url(#clip0_2208_12276)">
    <path d="M0.25 2.875C0.25 2.46079 0.585786 2.125 1 2.125H5C5.35311 2.125 5.65839 2.37131 5.73305 2.71644L6.25403 5.125H23C23.2209 5.125 23.4306 5.22242 23.5731 5.39126C23.7156 5.5601 23.7765 5.78318 23.7393 6.00098L22.1393 15.391L22.1356 15.4111C22.0099 16.0442 21.6655 16.6128 21.1628 17.0175C20.662 17.4206 20.0359 17.6355 19.3934 17.625H9.68664C9.04405 17.6355 8.41799 17.4206 7.91725 17.0175C7.41628 16.6142 7.07256 16.0482 6.94572 15.4179L4.39488 3.625H1C0.585786 3.625 0.25 3.28921 0.25 2.875ZM6.57848 6.625L8.41574 15.1189C8.47289 15.4066 8.62932 15.6651 8.85785 15.8491C9.08637 16.033 9.37232 16.1308 9.66563 16.1251L9.68 16.125H19.4L19.4144 16.1251C19.7077 16.1308 19.9936 16.033 20.2222 15.8491C20.4483 15.667 20.604 15.4119 20.6626 15.1277L22.1114 6.625H6.57848Z"/>
    <path d="M11 20.375C11 21.2034 10.3284 21.875 9.5 21.875C8.67157 21.875 8 21.2034 8 20.375C8 19.5466 8.67157 18.875 9.5 18.875C10.3284 18.875 11 19.5466 11 20.375Z"/>
    <path d="M19.5 21.875C20.3284 21.875 21 21.2034 21 20.375C21 19.5466 20.3284 18.875 19.5 18.875C18.6716 18.875 18 19.5466 18 20.375C18 21.2034 18.6716 21.875 19.5 21.875Z"/>
  </g>
  <defs>
    <clipPath id="clip0_2208_12276">
      <rect width="24" height="24"/>
    </clipPath>
  </defs>
</svg>

<svg xmlns="http://www.w3.org/2000/svg" viewBox="0 0 24 24" fill="currentColor" data-slot="icon">
  <g clip-path="url(#a)">
    <path d="M.25 2.875a.75.75 0 0 1 .75-.75h4a.75.75 0 0 1 .733.591l.521 2.409H23a.75.75 0 0 1 .74.876l-1.6 9.39-.004.02a2.75 2.75 0 0 1-2.743 2.214H9.687a2.75 2.75 0 0 1-2.741-2.207L4.395 3.625H1a.75.75 0 0 1-.75-.75Zm6.328 3.75 1.838 8.494a1.25 1.25 0 0 0 1.25 1.006h9.748a1.25 1.25 0 0 0 1.249-.997l1.448-8.503H6.578Z"/>
    <path d="M11 20.375a1.5 1.5 0 1 1-3 0 1.5 1.5 0 0 1 3 0Z"/>
    <path d="M19.5 21.875a1.5 1.5 0 1 0 0-3 1.5 1.5 0 0 0 0 3Z"/>
  </g>
  <defs>
    <clipPath id="a">
      <rect width="24" height="24"/>
    </clipPath>
  </defs>
</svg>
